public/images/marquee/nextcloud.svg

<svg xmlns="http://www.w3.org/2000/svg" fill="none" viewBox="0 0 182 36">
  <path fill="#1E1E1E" d="M0 0h182v36H0z"/>
  <g clip-path="url(#a)">
    <path fill="#FBFBFD" d="M-40-5214h1440V6252H-40z"/>
    <path fill="#CFD1D7" d="M39.5602 0C31.3716 0 24.4311 5.5568 22.28 13.0856c-1.8695-3.99337-5.9208-6.79109-10.5873-6.79109C5.2753 6.29451 0 11.575 0 17.9988s5.2753 11.7067 11.6927 11.7067c4.6665 0 8.7178-2.7995 10.5873-6.7936C24.4311 30.4413 31.3716 36 39.5602 36c8.128 0 15.0332-5.4748 17.2393-12.9193 1.904 3.9034 5.9052 6.6248 10.5054 6.6248C73.7223 29.7055 79 24.4226 79 17.9988S73.7223 6.29451 67.3049 6.29451c-4.6002 0-8.6014 2.71964-10.5054 6.62239C54.5934 5.47299 47.6882 0 39.5602 0Zm0 6.87069c6.1815 0 11.1196 4.94051 11.1196 11.12811 0 6.1875-4.9381 11.1305-11.1196 11.1305-6.1814 0-11.1171-4.943-11.1171-11.1305 0-6.1876 4.9357-11.12811 11.1171-11.12811ZM11.6927 13.1652c2.7083 0 4.8313 2.1227 4.8313 4.8336 0 2.7109-2.123 4.836-4.8313 4.836-2.7082 0-4.8288-2.1251-4.8288-4.836s2.1206-4.8336 4.8288-4.8336Zm55.6122 0c2.7082 0 4.8312 2.1227 4.8312 4.8336 0 2.7109-2.123 4.836-4.8312 4.836-2.7083 0-4.8289-2.1251-4.8289-4.836s2.1206-4.8336 4.8289-4.8336Zm25.1608-2.165c-.3252 0-.4657.1885-.4657.5187V25.199c0 .3302.1405.5164.4657.5164h.373c.3253 0 .5087-.1862.5087-.5164V13.8391l7.3566 11.5894c.032.0507.067.0844.101.1216.011.0125.018.0256.03.0367.031.029.065.0441.099.0619.019.0101.034.0248.055.0321.014.005.03.002.045.006.052.0136.105.0276.167.0276h.371c.325 0 .466-.1862.466-.5163V11.5187c0-.3302-.141-.5187-.466-.5187h-.371c-.325 0-.511.1885-.511.5187v11.3604l-7.3561-11.5894c-.0251-.0395-.0554-.0636-.0837-.0942-.0849-.1219-.2195-.1951-.4114-.1951l-.3731-.0002Zm88.3273.1882c-.325 0-.185.1885-.185.5187v4.6702c0 .4716.045.8009.045.8009h-.045s-.884-2.0746-3.346-2.0746c-2.695 0-4.601 2.1696-4.508 5.377 0 3.2074 1.719 5.4253 4.46 5.4253 2.649 0 3.531-2.1711 3.531-2.1711h.048s-.093.2836-.093.661v.8009c0 .3302.186.4728.511.4728h.326c.325 0 .463-.1885.463-.5187V11.7071c0-.3302-.511-.5187-.836-.5187h-.371Zm-36.103.0483c-.325 0-.138.1884-.138.5186v11.555c0 2.264 1.485 2.5474 2.322 2.5474.371 0 .511-.1885.511-.5186v-.3305c0-.3302-.186-.4705-.419-.4705-.464-.0471-1.067-.1894-1.067-1.5101V11.7553c0-.3302-.511-.5187-.836-.5187l-.373.0001Zm-16.68 1.2255c-.325 0-.51.1885-.51.5186v8.9617c0 2.4527 1.348 3.8211 3.578 3.8211.418 0 .556-.1403.556-.4704v-.2846c0-.3773-.138-.4715-.556-.5187-.79-.0471-2.231-.33-2.231-2.7355v-5.1889h2.091c.325 0 .511-.1403.511-.4704v-.1423c0-.3302-.186-.5187-.511-.5187h-2.091v-2.4533c0-.3301-.138-.5186-.464-.5186h-.373Zm-18.506 2.6415c-2.787 0-5.019 2.0291-5.066 5.4252 0 3.2073 2.324 5.4229 5.345 5.4229 1.626 0 2.833-.7069 3.391-1.1314.232-.1887.279-.4251.14-.6609l-.14-.2341c-.14-.283-.37-.331-.649-.1423-.465.3773-1.396.9432-2.697.9432-2.091 0-3.903-1.5102-3.95-4.1515h7.388c.279 0 .511-.2357.511-.5187 0-2.9715-1.531-4.9524-4.273-4.9524Zm28.867 0c-3.02 0-5.343 2.2637-5.389 5.4711 0 3.2073 2.324 5.4252 5.344 5.4252 1.859 0 3.113-.8974 3.624-1.3219.232-.2358.277-.4238.138-.7068l-.138-.1882c-.186-.283-.372-.331-.651-.1423-.465.4245-1.44 1.0855-2.88 1.0855-2.231 0-3.997-1.6988-3.997-4.1515 0-2.4999 1.766-4.1975 3.997-4.1975 1.208 0 2.09.6131 2.554.9433.279.1885.511.1889.697-.0941l.14-.2364c.232-.283.185-.5182-.048-.7068-.511-.4245-1.625-1.1796-3.391-1.1796Zm15.705 0c-2.974 0-5.389 2.3111-5.389 5.377 0 3.113 2.415 5.4711 5.389 5.4711s5.39-2.3581 5.39-5.4711c0-3.0659-2.416-5.377-5.39-5.377Zm-30.058.1583c-.114.0185-.223.0962-.328.2226l-1.881 2.2743-1.406 1.7028-2.132-2.5772-1.155-1.3999c-.104-.1265-.223-.1958-.346-.2065-.123-.0101-.25.0362-.375.1423l-.285.2432c-.249.2122-.236.447-.027.7l1.881 2.2742 1.56 1.8888-2.283 2.7608c-.003.002-.004.005-.005.006l-1.153 1.393c-.209.253-.186.5199.063.7321l.285.241c.249.2122.476.1588.685-.0942l1.879-2.2743 1.408-1.7028 2.132 2.5795c.001.002.004.004.005.005l1.15 1.3953c.209.253.472.2742.721.0619l.285-.2409c.249-.2123.237-.4471.027-.7l-1.88-2.2766-1.56-1.8864 2.283-2.7631c.002-.002.003-.004.004-.006l1.153-1.3931c.21-.2529.186-.5198-.063-.7321l-.285-.2409c-.124-.1062-.243-.1472-.357-.1288Zm38.19.0781c-.325 0-.466.1885-.466.5187v6.0838c0 2.6886 1.952 4.0093 4.368 4.0093 2.416 0 4.367-1.3207 4.367-4.0093v-6.0838c.047-.3302-.138-.5187-.463-.5187h-.373c-.325 0-.511.1885-.511.5187v5.7075c0 1.6037-1.022 3.066-3.02 3.066-1.952 0-3.02-1.4623-3.02-3.066v-5.7075c0-.3302-.186-.5187-.511-.5187h-.371Zm-52.751.9433c1.487 0 2.787 1.0845 2.88 3.2542h-6.411c.325-2.1226 1.812-3.2542 3.531-3.2542Zm44.619.0941c2.184 0 3.95 1.745 3.95 4.1034 0 2.4527-1.766 4.2456-3.95 4.2456s-3.95-1.8401-3.997-4.2456c0-2.3112 1.813-4.1034 3.997-4.1034Zm23.278 0c2.184 0 3.254 2.029 3.254 4.1516 0 2.9715-1.582 4.1974-3.301 4.1974-1.905 0-3.205-1.6504-3.251-4.1974 0-2.6414 1.486-4.1516 3.298-4.1516Z"/>
  </g>
  <defs>
    <clipPath id="a">
      <path fill="#fff" d="M-40-5214h1440V6252H-40z"/>
    </clipPath>
  </defs>
</svg>

<svg width="182" height="36" viewBox="0 0 182 36" fill="none" xmlns="http://www.w3.org/2000/svg">
<rect width="182" height="36" fill="#1E1E1E"/>
<g id="Final" clip-path="url(#clip0_267_42)">
<rect width="1440" height="11466" transform="translate(-40 -5214)" fill="#FBFBFD"/>
<g id="Group 128">
<g id="Group 101">
<path id="path1052" d="M39.5602 0C31.3716 0 24.4311 5.5568 22.28 13.0856C20.4105 9.09223 16.3592 6.29451 11.6927 6.29451C5.2753 6.29451 0 11.575 0 17.9988C0 24.4226 5.2753 29.7055 11.6927 29.7055C16.3592 29.7055 20.4105 26.906 22.28 22.9119C24.4311 30.4413 31.3716 36 39.5602 36C47.6882 36 54.5934 30.5252 56.7995 23.0807C58.7035 26.9841 62.7047 29.7055 67.3049 29.7055C73.7223 29.7055 79 24.4226 79 17.9988C79 11.575 73.7223 6.29451 67.3049 6.29451C62.7047 6.29451 58.7035 9.01415 56.7995 12.9169C54.5934 5.47299 47.6882 0 39.5602 0ZM39.5602 6.87069C45.7417 6.87069 50.6798 11.8112 50.6798 17.9988C50.6798 24.1863 45.7417 29.1293 39.5602 29.1293C33.3788 29.1293 28.4431 24.1863 28.4431 17.9988C28.4431 11.8112 33.3788 6.87069 39.5602 6.87069ZM11.6927 13.1652C14.401 13.1652 16.524 15.2879 16.524 17.9988C16.524 20.7097 14.401 22.8348 11.6927 22.8348C8.9845 22.8348 6.8639 20.7097 6.8639 17.9988C6.8639 15.2879 8.9845 13.1652 11.6927 13.1652ZM67.3049 13.1652C70.0131 13.1652 72.1361 15.2879 72.1361 17.9988C72.1361 20.7097 70.0131 22.8348 67.3049 22.8348C64.5966 22.8348 62.476 20.7097 62.476 17.9988C62.476 15.2879 64.5966 13.1652 67.3049 13.1652Z" fill="#CFD1D7"/>
<path id="path1174" d="M92.4657 11.0002C92.1405 11.0002 92 11.1887 92 11.5189V25.199C92 25.5292 92.1405 25.7154 92.4657 25.7154H92.8387C93.164 25.7154 93.3474 25.5292 93.3474 25.199V13.8391L100.704 25.4285C100.736 25.4792 100.771 25.5129 100.805 25.5501C100.816 25.5626 100.823 25.5757 100.835 25.5868C100.866 25.6158 100.9 25.6309 100.934 25.6487C100.953 25.6588 100.968 25.6735 100.989 25.6808C101.003 25.6858 101.019 25.6828 101.034 25.6868C101.086 25.7004 101.139 25.7144 101.201 25.7144H101.572C101.897 25.7144 102.038 25.5282 102.038 25.1981V11.5187C102.038 11.1885 101.897 11 101.572 11H101.201C100.876 11 100.69 11.1885 100.69 11.5187V22.8791L93.3339 11.2897C93.3088 11.2502 93.2785 11.2261 93.2502 11.1955C93.1653 11.0736 93.0307 11.0004 92.8388 11.0004L92.4657 11.0002ZM180.793 11.1884C180.468 11.1884 180.608 11.3769 180.608 11.7071V16.3773C180.608 16.8489 180.653 17.1782 180.653 17.1782H180.608C180.608 17.1782 179.724 15.1036 177.262 15.1036C174.567 15.1036 172.661 17.2732 172.754 20.4806C172.754 23.688 174.473 25.9059 177.214 25.9059C179.863 25.9059 180.745 23.7348 180.745 23.7348H180.793C180.793 23.7348 180.7 24.0184 180.7 24.3958V25.1967C180.7 25.5269 180.886 25.6695 181.211 25.6695H181.537C181.862 25.6695 182 25.481 182 25.1508V11.7071C182 11.3769 181.489 11.1884 181.164 11.1884H180.793ZM144.69 11.2367C144.365 11.2367 144.552 11.4251 144.552 11.7553V23.3103C144.552 25.5743 146.037 25.8577 146.874 25.8577C147.245 25.8577 147.385 25.6692 147.385 25.3391V25.0086C147.385 24.6784 147.199 24.5381 146.966 24.5381C146.502 24.491 145.899 24.3487 145.899 23.028V11.7553C145.899 11.4251 145.388 11.2366 145.063 11.2366L144.69 11.2367ZM128.01 12.4622C127.685 12.4622 127.5 12.6507 127.5 12.9808V15.4341V16.6137V21.9425C127.5 24.3952 128.848 25.7636 131.078 25.7636C131.496 25.7636 131.634 25.6233 131.634 25.2932V25.0086C131.634 24.6313 131.496 24.5371 131.078 24.4899C130.288 24.4428 128.847 24.1599 128.847 21.7544V16.5655H130.938C131.263 16.5655 131.449 16.4252 131.449 16.0951V15.9528C131.449 15.6226 131.263 15.4341 130.938 15.4341H128.847V12.9808C128.847 12.6507 128.709 12.4622 128.383 12.4622H128.01ZM109.504 15.1037C106.717 15.1037 104.485 17.1328 104.438 20.5289C104.438 23.7362 106.762 25.9518 109.783 25.9518C111.409 25.9518 112.616 25.2449 113.174 24.8204C113.406 24.6317 113.453 24.3953 113.314 24.1595L113.174 23.9254C113.034 23.6424 112.804 23.5944 112.525 23.7831C112.06 24.1604 111.129 24.7263 109.828 24.7263C107.737 24.7263 105.925 23.2161 105.878 20.5748H113.266C113.545 20.5748 113.777 20.3391 113.777 20.0561C113.777 17.0846 112.246 15.1037 109.504 15.1037ZM138.371 15.1037C135.351 15.1037 133.028 17.3674 132.982 20.5748C132.982 23.7821 135.306 26 138.326 26C140.185 26 141.439 25.1026 141.95 24.6781C142.182 24.4423 142.227 24.2543 142.088 23.9713L141.95 23.7831C141.764 23.5001 141.578 23.4521 141.299 23.6408C140.834 24.0653 139.859 24.7263 138.419 24.7263C136.188 24.7263 134.422 23.0275 134.422 20.5748C134.422 18.0749 136.188 16.3773 138.419 16.3773C139.627 16.3773 140.509 16.9904 140.973 17.3206C141.252 17.5091 141.484 17.5095 141.67 17.2265L141.81 16.9901C142.042 16.7071 141.995 16.4719 141.762 16.2833C141.251 15.8588 140.137 15.1037 138.371 15.1037ZM154.076 15.1037C151.102 15.1037 148.687 17.4148 148.687 20.4807C148.687 23.5937 151.102 25.9518 154.076 25.9518C157.05 25.9518 159.466 23.5937 159.466 20.4807C159.466 17.4148 157.05 15.1037 154.076 15.1037ZM124.018 15.262C123.904 15.2805 123.795 15.3582 123.69 15.4846L121.809 17.7589L120.403 19.4617L118.271 16.8845L117.116 15.4846C117.012 15.3581 116.893 15.2888 116.77 15.2781C116.647 15.268 116.52 15.3143 116.395 15.4204L116.11 15.6636C115.861 15.8758 115.874 16.1106 116.083 16.3636L117.964 18.6378L119.524 20.5266L117.241 23.2874C117.238 23.2894 117.237 23.2924 117.236 23.2934L116.083 24.6864C115.874 24.9394 115.897 25.2063 116.146 25.4185L116.431 25.6595C116.68 25.8717 116.907 25.8183 117.116 25.5653L118.995 23.291L120.403 21.5882L122.535 24.1677C122.536 24.1697 122.539 24.1717 122.54 24.1727L123.69 25.568C123.899 25.821 124.162 25.8422 124.411 25.6299L124.696 25.389C124.945 25.1767 124.933 24.9419 124.723 24.689L122.843 22.4124L121.283 20.526L123.566 17.7629C123.568 17.7609 123.569 17.7589 123.57 17.7569L124.723 16.3638C124.933 16.1109 124.909 15.844 124.66 15.6317L124.375 15.3908C124.251 15.2846 124.132 15.2436 124.018 15.262ZM162.208 15.3401C161.883 15.3401 161.742 15.5286 161.742 15.8588V21.9426C161.742 24.6312 163.694 25.9519 166.11 25.9519C168.526 25.9519 170.477 24.6312 170.477 21.9426V15.8588C170.524 15.5286 170.339 15.3401 170.014 15.3401H169.641C169.316 15.3401 169.13 15.5286 169.13 15.8588V21.5663C169.13 23.17 168.108 24.6323 166.11 24.6323C164.158 24.6323 163.09 23.17 163.09 21.5663V15.8588C163.09 15.5286 162.904 15.3401 162.579 15.3401L162.208 15.3401ZM109.457 16.2834C110.944 16.2834 112.244 17.3679 112.337 19.5376H105.926C106.251 17.415 107.738 16.2834 109.457 16.2834ZM154.076 16.3775C156.26 16.3775 158.026 18.1225 158.026 20.4809C158.026 22.9336 156.26 24.7265 154.076 24.7265C151.892 24.7265 150.126 22.8864 150.079 20.4809C150.079 18.1697 151.892 16.3775 154.076 16.3775ZM177.354 16.3775C179.538 16.3775 180.608 18.4065 180.608 20.5291C180.608 23.5006 179.026 24.7265 177.307 24.7265C175.402 24.7265 174.102 23.0761 174.056 20.5291C174.056 17.8877 175.542 16.3775 177.354 16.3775Z" fill="#CFD1D7"/>
</g>
</g>
</g>
<defs>
<clipPath id="clip0_267_42">
<rect width="1440" height="11466" fill="white" transform="translate(-40 -5214)"/>
</clipPath>
</defs>
</svg>
